X: 12
T: No_20_Social_Dance_Song_(a).krn
N: Derived from No_20_Social_Dance_Song_(a).krn
%%abc-version 2.0
%%abcx-abcm2ps-target-version 5.9.1 (29 Sep 2008)
%%abc-creator hum2abc beta
%%abcx-conversion-date 2019/03/15 08:35:00
%%humdrum-veritas 571991672
%%humdrum-veritas-data 1652821972
%%linebreak <none>
%%barnumbers 0
L: 1/16
M: 2/4
K: A clef=bass
[K:clef=bass][M:2/4]C2(CB,)B,4 | 
B,2(B,A,) A,2 z2 | 
C2(CB,)B,4 | 
(B,A,)A,2 A,2 z2 | 
B,2(B,A,)B,4 | 
(B,A,)A,2 A,2 z2 | 
A,2B,2B,4 | 
(B,A,)(F,E,) E,2 z2 | 
B,2(B,C) B,3C | 
(CB,)(B,A,) A,2 z2 ]|:  
C2(CB,)B,4 | 
(B,A,)A,2A,4 :|]  
A,2B,2B,4 | 
(B,A,)(F,E,)E,4 | 
B,2(B,C) B,3C | 
(CB,)(B,A,) A,2 z2 | 
C2(CB,)B,4 | 
(B,A,)A,2 A,2 z2 | 
A,2B,2B,4 | 
(B,A,)(F,E,)E,4 | 
B,2(B,C) B,3C | 
(CB,)(B,A,) A,2 z2 |]  



